airbyte/airbyte-config/init/src/main/resources/icons/looker.svg

<svg xmlns="http://www.w3.org/2000/svg" xmlns:xlink="http://www.w3.org/1999/xlink" width="105.46" height="170.01" viewBox="-0.991 234.02 109.456 174.008"><defs><path id="a" d="M37.52 249.89c0 2.95.88 5.84 2.53 8.29.63-.64 5.71-5.71 6.34-6.34-.21-.64-.31-1.3-.31-1.96 0-3.47 2.81-6.27 6.27-6.27 3.46 0 6.27 2.8 6.27 6.27 0 3.46-2.81 6.26-6.27 6.26-.66.01-1.32-.1-1.95-.31-.64.63-5.71 5.71-6.34 6.34 6.79 4.61 16.03 2.83 20.63-3.96 4.61-6.79 2.83-16.02-3.96-20.63a14.864 14.864 0 0 0-8.35-2.56c-8.21 0-14.87 6.66-14.86 14.87Z"/><path id="b" d="M41.84 264.4c-.83.82-7.42 7.41-8.24 8.23a11.823 11.823 0 0 1-2.26 14.26c.45 1.09 4.03 9.84 4.48 10.94a23.242 23.242 0 0 0 10.65-19.51c.01-5.02-1.62-9.91-4.63-13.92Z"/><path id="c" d="M23.44 290.13h-.21c-6.53 0-11.82-5.29-11.82-11.82s5.29-11.82 11.82-11.82c2.3 0 4.56.67 6.49 1.94l8.16-8.16c-9.97-8.08-24.59-6.55-32.67 3.42-8.08 9.96-6.55 24.59 3.41 32.67 4.13 3.35 9.29 5.18 14.61 5.18 1.57.01 3.15-.15 4.69-.46-.6-1.46-2.09-5.11-4.48-10.95Z"/><path id="d" d="M37.47 301.82c.65 1.6 5.87 14.36 6.52 15.95 2.85-.7 5.76-1.06 8.69-1.06 19.64.01 35.55 15.93 35.55 35.57-.01 19.64-15.93 35.56-35.57 35.55-19.64 0-35.55-15.93-35.55-35.57 0-9.43 3.75-18.47 10.42-25.13 2.5-2.5 5.36-4.61 8.48-6.27-.65-1.59-5.81-14.31-6.46-15.9-26.15 12.8-36.96 44.38-24.16 70.53 12.81 26.14 44.39 36.96 70.53 24.15 26.15-12.8 36.97-44.38 24.16-70.53a52.723 52.723 0 0 0-47.35-29.53c-5.2.01-10.33.76-15.26 2.24Z"/></defs><use xlink:href="#a" fill="#34a853"/><use xlink:href="#a" fill-opacity="0" stroke="#000" stroke-opacity="0"/><use xlink:href="#b" fill="#fbbc04"/><use xlink:href="#b" fill-opacity="0" stroke="#000" stroke-opacity="0"/><use xlink:href="#c" fill="#ea4335"/><use xlink:href="#c" fill-opacity="0" stroke="#000" stroke-opacity="0"/><use xlink:href="#d" fill="#4285f4"/><use xlink:href="#d" fill-opacity="0" stroke="#000" stroke-opacity="0"/></svg>

<?xml version="1.0" encoding="UTF-8" standalone="no"?>
<!DOCTYPE svg PUBLIC "-//W3C//DTD SVG 1.1//EN" "http://www.w3.org/Graphics/SVG/1.1/DTD/svg11.dtd">
<svg version="1.1" xmlns="http://www.w3.org/2000/svg" xmlns:xlink="http://www.w3.org/1999/xlink" preserveAspectRatio="xMidYMid meet" viewBox="-0.9914105917219267 234.02006491219046 109.45616850316111 174.00755335409954" width="105.46" height="170.01"><defs><path d="M37.52 249.89C37.52 252.84 38.4 255.73 40.05 258.18C40.68 257.54 45.76 252.47 46.39 251.84C46.18 251.2 46.08 250.54 46.08 249.88C46.08 246.41 48.89 243.61 52.35 243.61C55.81 243.61 58.62 246.41 58.62 249.88C58.62 253.34 55.81 256.14 52.35 256.14C51.69 256.15 51.03 256.04 50.4 255.83C49.76 256.46 44.69 261.54 44.06 262.17C50.85 266.78 60.09 265 64.69 258.21C69.3 251.42 67.52 242.19 60.73 237.58C58.27 235.91 55.36 235.02 52.38 235.02C44.17 235.02 37.51 241.68 37.52 249.89Z" id="c3309xvIAl"></path><path d="M41.84 264.4C41.01 265.22 34.42 271.81 33.6 272.63C36.17 277.34 35.25 283.2 31.34 286.89C31.79 287.98 35.37 296.73 35.82 297.83C42.45 293.56 46.46 286.21 46.47 278.32C46.48 273.3 44.85 268.41 41.84 264.4Z" id="c8b0pFjJx"></path><path d="M23.44 290.13C23.31 290.13 23.24 290.13 23.23 290.13C16.7 290.13 11.41 284.84 11.41 278.31C11.41 271.78 16.7 266.49 23.23 266.49C25.53 266.49 27.79 267.16 29.72 268.43C30.54 267.61 37.06 261.09 37.88 260.27C27.91 252.19 13.29 253.72 5.21 263.69C-2.87 273.65 -1.34 288.28 8.62 296.36C12.75 299.71 17.91 301.54 23.23 301.54C24.8 301.55 26.38 301.39 27.92 301.08C27.32 299.62 25.83 295.97 23.44 290.13Z" id="c3y8Exy5vl"></path><path d="M37.47 301.82C38.12 303.42 43.34 316.18 43.99 317.77C46.84 317.07 49.75 316.71 52.68 316.71C72.32 316.72 88.23 332.64 88.23 352.28C88.22 371.92 72.3 387.84 52.66 387.83C33.02 387.83 17.11 371.9 17.11 352.26C17.11 342.83 20.86 333.79 27.53 327.13C30.03 324.63 32.89 322.52 36.01 320.86C35.36 319.27 30.2 306.55 29.55 304.96C3.4 317.76 -7.41 349.34 5.39 375.49C18.2 401.63 49.78 412.45 75.92 399.64C102.07 386.84 112.89 355.26 100.08 329.11C91.23 311.04 72.86 299.58 52.73 299.58C47.53 299.59 42.4 300.34 37.47 301.82Z" id="a1VYA94pIq"></path></defs><g><g><use xlink:href="#c3309xvIAl" opacity="1" fill="#34a853" fill-opacity="1"></use><g><use xlink:href="#c3309xvIAl" opacity="1" fill-opacity="0" stroke="#000000" stroke-width="1" stroke-opacity="0"></use></g></g><g><use xlink:href="#c8b0pFjJx" opacity="1" fill="#fbbc04" fill-opacity="1"></use><g><use xlink:href="#c8b0pFjJx" opacity="1" fill-opacity="0" stroke="#000000" stroke-width="1" stroke-opacity="0"></use></g></g><g><use xlink:href="#c3y8Exy5vl" opacity="1" fill="#ea4335" fill-opacity="1"></use><g><use xlink:href="#c3y8Exy5vl" opacity="1" fill-opacity="0" stroke="#000000" stroke-width="1" stroke-opacity="0"></use></g></g><g><use xlink:href="#a1VYA94pIq" opacity="1" fill="#4285f4" fill-opacity="1"></use><g><use xlink:href="#a1VYA94pIq" opacity="1" fill-opacity="0" stroke="#000000" stroke-width="1" stroke-opacity="0"></use></g></g></g></svg>
